svg/color/clbk.svg

<?xml version="1.0" encoding="UTF-8" ?>
<!DOCTYPE svg PUBLIC "-//W3C//DTD SVG 1.1//EN" "http://www.w3.org/Graphics/SVG/1.1/DTD/svg11.dtd">
<svg width="250pt" height="250pt" viewBox="0 0 250 250" version="1.1" xmlns="http://www.w3.org/2000/svg">
<g id="#ffffffff">
<path fill="#ffffff" opacity="1.00" d=" M 0.00 0.00 L 250.00 0.00 L 250.00 250.00 L 0.00 250.00 L 0.00 0.00 M 40.26 104.86 C 40.14 117.67 40.15 130.48 40.22 143.29 C 42.29 143.27 44.37 143.25 46.44 143.24 C 46.45 130.41 46.50 117.58 46.42 104.76 C 44.36 104.79 42.31 104.81 40.26 104.86 M 136.84 104.87 C 136.61 108.52 136.66 112.18 136.70 115.83 C 133.70 114.40 130.45 113.16 127.06 113.52 C 119.67 113.82 113.24 120.56 113.24 127.95 C 112.95 133.87 116.70 139.62 122.05 142.06 C 128.00 144.70 135.71 143.03 139.77 137.85 C 142.32 134.85 143.21 130.83 143.22 126.98 C 143.30 119.79 143.09 112.60 143.31 105.41 C 141.20 104.86 139.01 104.55 136.84 104.87 M 146.60 105.27 C 146.86 113.54 146.59 121.82 146.76 130.10 C 147.41 137.98 155.29 144.23 163.10 143.22 C 170.29 142.72 176.55 136.27 176.52 129.02 C 177.12 121.37 170.69 113.92 163.00 113.56 C 159.58 113.08 156.32 114.34 153.31 115.80 C 153.20 112.30 153.18 108.80 153.28 105.31 C 151.06 104.77 148.82 104.65 146.60 105.27 M 202.52 105.24 C 202.59 107.27 202.64 109.31 202.70 111.34 C 204.65 111.34 206.59 111.35 208.54 111.24 C 210.13 109.83 208.97 107.23 209.43 105.37 C 207.14 104.79 204.83 104.73 202.52 105.24 M 61.63 113.81 C 54.90 115.29 49.39 121.94 50.27 128.99 C 49.90 138.16 60.05 145.41 68.71 142.84 C 77.25 141.12 82.25 130.96 78.98 123.03 C 76.66 116.08 68.64 112.18 61.63 113.81 M 83.57 113.47 C 83.62 119.33 83.39 125.19 83.58 131.04 C 83.74 136.83 88.37 142.03 94.05 143.01 C 101.40 144.85 109.65 138.70 109.52 131.04 C 109.64 125.18 109.50 119.32 109.58 113.46 C 107.49 113.45 105.41 113.44 103.33 113.44 C 102.94 120.13 103.84 126.89 102.60 133.52 C 101.18 134.83 99.84 136.57 97.74 136.71 C 94.29 137.46 90.18 134.84 90.27 131.11 C 90.04 125.26 90.28 119.40 90.23 113.54 C 88.01 113.56 85.79 113.43 83.57 113.47 M 181.72 121.56 C 178.94 128.42 180.60 136.09 180.24 143.30 C 182.34 143.27 184.45 143.28 186.56 143.27 C 186.67 138.17 186.45 133.05 186.66 127.95 C 186.62 125.48 188.22 123.49 189.46 121.51 C 192.54 120.10 195.94 119.97 199.26 119.69 C 199.26 117.60 199.28 115.52 199.31 113.44 C 192.55 112.65 184.71 114.89 181.72 121.56 M 202.64 113.45 C 202.75 123.34 202.39 133.25 202.82 143.12 C 204.97 143.34 207.13 143.25 209.29 143.27 C 209.32 133.34 209.22 123.40 209.31 113.47 C 207.09 113.44 204.87 113.43 202.64 113.45 M 213.61 122.81 C 210.56 130.75 215.25 140.76 223.70 142.76 C 229.62 144.65 235.87 142.01 239.79 137.48 C 238.16 136.14 236.61 134.72 234.98 133.38 C 232.03 136.39 227.27 138.11 223.43 135.68 C 218.37 133.03 217.79 124.78 222.64 121.66 C 226.16 119.05 231.40 119.78 234.28 123.01 C 236.50 122.43 238.17 120.84 239.77 119.30 C 236.57 116.23 232.69 113.17 227.96 113.57 C 221.70 113.15 216.28 117.40 213.61 122.81 M 18.47 114.68 C 14.66 116.61 11.34 119.90 10.17 124.10 C 8.01 130.68 11.28 138.61 17.58 141.59 C 23.41 144.75 31.00 143.30 35.62 138.64 C 35.68 138.12 35.81 137.08 35.87 136.57 C 34.31 135.64 32.92 134.47 31.36 133.54 C 28.82 136.45 24.57 137.80 20.98 136.08 C 15.42 134.08 14.45 125.54 18.98 122.02 C 22.47 118.88 28.29 119.71 31.32 123.12 C 33.18 122.21 34.91 121.07 36.49 119.74 C 32.71 113.92 24.72 112.03 18.47 114.68 Z" />
<path fill="#ffffff" opacity="1.00" d=" M 63.27 120.10 C 67.06 119.27 71.66 121.33 72.87 125.19 C 75.34 130.39 70.71 137.22 64.98 136.80 C 59.99 137.03 55.79 131.73 56.60 126.94 C 57.49 123.79 59.99 120.84 63.27 120.10 Z" />
<path fill="#ffffff" opacity="1.00" d=" M 125.29 120.43 C 129.14 119.37 133.80 120.54 135.64 124.36 C 138.53 129.07 135.24 135.88 129.81 136.67 C 125.60 137.55 120.99 134.77 120.00 130.54 C 118.69 126.42 121.45 121.94 125.29 120.43 Z" />
<path fill="#ffffff" opacity="1.00" d=" M 158.46 120.55 C 161.31 119.84 164.82 119.76 167.08 121.93 C 172.03 125.70 170.34 135.15 164.05 136.49 C 158.80 138.28 152.72 133.50 153.26 128.00 C 153.19 124.74 155.49 121.72 158.46 120.55 Z" />
</g>
<g id="#1573e1ff">
<path fill="#1573e1" opacity="1.00" d=" M 40.26 104.86 C 42.31 104.81 44.36 104.79 46.42 104.76 C 46.50 117.58 46.45 130.41 46.44 143.24 C 44.37 143.25 42.29 143.27 40.22 143.29 C 40.15 130.48 40.14 117.67 40.26 104.86 Z" />
<path fill="#1573e1" opacity="1.00" d=" M 136.84 104.87 C 139.01 104.55 141.20 104.86 143.31 105.41 C 143.09 112.60 143.30 119.79 143.22 126.98 C 143.21 130.83 142.32 134.85 139.77 137.85 C 135.71 143.03 128.00 144.70 122.05 142.06 C 116.70 139.62 112.95 133.87 113.24 127.95 C 113.24 120.56 119.67 113.82 127.06 113.52 C 130.45 113.16 133.70 114.40 136.70 115.83 C 136.66 112.18 136.61 108.52 136.84 104.87 M 125.29 120.43 C 121.45 121.94 118.69 126.42 120.00 130.54 C 120.99 134.77 125.60 137.55 129.81 136.67 C 135.24 135.88 138.53 129.07 135.64 124.36 C 133.80 120.54 129.14 119.37 125.29 120.43 Z" />
<path fill="#1573e1" opacity="1.00" d=" M 146.60 105.27 C 148.82 104.65 151.06 104.77 153.28 105.31 C 153.18 108.80 153.20 112.30 153.31 115.80 C 156.32 114.34 159.58 113.08 163.00 113.56 C 170.69 113.92 177.12 121.37 176.52 129.02 C 176.55 136.27 170.29 142.72 163.10 143.22 C 155.29 144.23 147.41 137.98 146.76 130.10 C 146.59 121.82 146.86 113.54 146.60 105.27 M 158.46 120.55 C 155.49 121.72 153.19 124.74 153.26 128.00 C 152.72 133.50 158.80 138.28 164.05 136.49 C 170.34 135.15 172.03 125.70 167.08 121.93 C 164.82 119.76 161.31 119.84 158.46 120.55 Z" />
<path fill="#1573e1" opacity="1.00" d=" M 202.52 105.24 C 204.83 104.73 207.14 104.79 209.43 105.37 C 208.97 107.23 210.13 109.83 208.54 111.24 C 206.59 111.35 204.65 111.34 202.70 111.34 C 202.64 109.31 202.59 107.27 202.52 105.24 Z" />
<path fill="#1573e1" opacity="1.00" d=" M 61.63 113.81 C 68.64 112.18 76.66 116.08 78.98 123.03 C 82.25 130.96 77.25 141.12 68.71 142.84 C 60.05 145.41 49.90 138.16 50.27 128.99 C 49.39 121.94 54.90 115.29 61.63 113.81 M 63.27 120.10 C 59.99 120.84 57.49 123.79 56.60 126.94 C 55.79 131.73 59.99 137.03 64.98 136.80 C 70.71 137.22 75.34 130.39 72.87 125.19 C 71.66 121.33 67.06 119.27 63.27 120.10 Z" />
<path fill="#1573e1" opacity="1.00" d=" M 83.57 113.47 C 85.79 113.43 88.01 113.56 90.23 113.54 C 90.28 119.40 90.04 125.26 90.27 131.11 C 90.18 134.84 94.29 137.46 97.74 136.71 C 99.84 136.57 101.18 134.83 102.60 133.52 C 103.84 126.89 102.94 120.13 103.33 113.44 C 105.41 113.44 107.49 113.45 109.58 113.46 C 109.50 119.32 109.64 125.18 109.52 131.04 C 109.65 138.70 101.40 144.85 94.05 143.01 C 88.37 142.03 83.74 136.83 83.58 131.04 C 83.39 125.19 83.62 119.33 83.57 113.47 Z" />
<path fill="#1573e1" opacity="1.00" d=" M 181.72 121.56 C 184.71 114.89 192.55 112.65 199.31 113.44 C 199.28 115.52 199.26 117.60 199.26 119.69 C 195.94 119.97 192.54 120.10 189.46 121.51 C 188.22 123.49 186.62 125.48 186.66 127.95 C 186.45 133.05 186.67 138.17 186.56 143.27 C 184.45 143.28 182.34 143.27 180.24 143.30 C 180.60 136.09 178.94 128.42 181.72 121.56 Z" />
<path fill="#1573e1" opacity="1.00" d=" M 202.64 113.45 C 204.87 113.43 207.09 113.44 209.31 113.47 C 209.22 123.40 209.32 133.34 209.29 143.27 C 207.13 143.25 204.97 143.34 202.82 143.12 C 202.39 133.25 202.75 123.34 202.64 113.45 Z" />
<path fill="#1573e1" opacity="1.00" d=" M 213.61 122.81 C 216.28 117.40 221.70 113.15 227.96 113.57 C 232.69 113.17 236.57 116.23 239.77 119.30 C 238.17 120.84 236.50 122.43 234.28 123.01 C 231.40 119.78 226.16 119.05 222.64 121.66 C 217.79 124.78 218.37 133.03 223.43 135.68 C 227.27 138.11 232.03 136.39 234.98 133.38 C 236.61 134.72 238.16 136.14 239.79 137.48 C 235.87 142.01 229.62 144.65 223.70 142.76 C 215.25 140.76 210.56 130.75 213.61 122.81 Z" />
<path fill="#1573e1" opacity="1.00" d=" M 18.47 114.68 C 24.72 112.03 32.71 113.92 36.49 119.74 C 34.91 121.07 33.18 122.21 31.32 123.12 C 28.29 119.71 22.47 118.88 18.98 122.02 C 14.45 125.54 15.42 134.08 20.98 136.08 C 24.57 137.80 28.82 136.45 31.36 133.54 C 32.92 134.47 34.31 135.64 35.87 136.57 C 35.81 137.08 35.68 138.12 35.62 138.64 C 31.00 143.30 23.41 144.75 17.58 141.59 C 11.28 138.61 8.01 130.68 10.17 124.10 C 11.34 119.90 14.66 116.61 18.47 114.68 Z" />
</g>
</svg>

<?xml version="1.0" encoding="utf-8"?>
<!-- Generator: Adobe Illustrator 26.0.3, SVG Export Plug-In . SVG Version: 6.00 Build 0)  -->
<svg version="1.1" id="Layer_1" xmlns="http://www.w3.org/2000/svg" xmlns:xlink="http://www.w3.org/1999/xlink" x="0px" y="0px"
	 viewBox="0 0 250 250" style="enable-background:new 0 0 250 250;" xml:space="preserve">
<style type="text/css">
	.st0{fill:#FFFFFF;}
	.st1{fill:#1573E1;}
</style>
<circle class="st0" cx="125" cy="125.5" r="125"/>
<g id="_x23_ffffffff">
	<path class="st0" d="M63.3,120.1c3.8-0.8,8.4,1.2,9.6,5.1c2.5,5.2-2.2,12-7.9,11.6c-5,0.2-9.2-5.1-8.4-9.9
		C57.5,123.8,60,120.8,63.3,120.1z"/>
	<path class="st0" d="M125.3,120.4c3.8-1.1,8.5,0.1,10.3,3.9c2.9,4.7-0.4,11.5-5.8,12.3c-4.2,0.9-8.8-1.9-9.8-6.1
		C118.7,126.4,121.4,121.9,125.3,120.4z"/>
	<path class="st0" d="M158.5,120.6c2.8-0.7,6.4-0.8,8.6,1.4c4.9,3.8,3.3,13.2-3,14.6c-5.2,1.8-11.3-3-10.8-8.5
		C153.2,124.7,155.5,121.7,158.5,120.6z"/>
</g>
<g id="_x23_1573e1ff">
	<path class="st1" d="M40.3,104.9c2.1-0.1,4.1-0.1,6.2-0.1c0.1,12.8,0,25.7,0,38.5c-2.1,0-4.1,0-6.2,0
		C40.2,130.5,40.1,117.7,40.3,104.9z"/>
	<path class="st1" d="M136.8,104.9c2.2-0.3,4.4,0,6.5,0.5c-0.2,7.2,0,14.4-0.1,21.6c0,3.8-0.9,7.9-3.4,10.9
		c-4.1,5.2-11.8,6.8-17.7,4.2c-5.4-2.4-9.1-8.2-8.8-14.1c0-7.4,6.4-14.1,13.8-14.4c3.4-0.4,6.6,0.9,9.6,2.3
		C136.7,112.2,136.6,108.5,136.8,104.9 M125.3,120.4c-3.8,1.5-6.6,6-5.3,10.1c1,4.2,5.6,7,9.8,6.1c5.4-0.8,8.7-7.6,5.8-12.3
		C133.8,120.5,129.1,119.4,125.3,120.4z"/>
	<path class="st1" d="M146.6,105.3c2.2-0.6,4.5-0.5,6.7,0c-0.1,3.5-0.1,7,0,10.5c3-1.5,6.3-2.7,9.7-2.2c7.7,0.4,14.1,7.8,13.5,15.5
		c0,7.2-6.2,13.7-13.4,14.2c-7.8,1-15.7-5.2-16.3-13.1C146.6,121.8,146.9,113.5,146.6,105.3 M158.5,120.6c-3,1.2-5.3,4.2-5.2,7.4
		c-0.5,5.5,5.5,10.3,10.8,8.5c6.3-1.3,8-10.8,3-14.6C164.8,119.8,161.3,119.8,158.5,120.6z"/>
	<path class="st1" d="M202.5,105.2c2.3-0.5,4.6-0.4,6.9,0.1c-0.5,1.9,0.7,4.5-0.9,5.9c-1.9,0.1-3.9,0.1-5.8,0.1
		C202.6,109.3,202.6,107.3,202.5,105.2z"/>
	<path class="st1" d="M61.6,113.8c7-1.6,15,2.3,17.4,9.2c3.3,7.9-1.7,18.1-10.3,19.8c-8.7,2.6-18.8-4.7-18.4-13.8
		C49.4,121.9,54.9,115.3,61.6,113.8 M63.3,120.1c-3.3,0.7-5.8,3.7-6.7,6.8c-0.8,4.8,3.4,10.1,8.4,9.9c5.7,0.4,10.4-6.4,7.9-11.6
		C71.7,121.3,67.1,119.3,63.3,120.1z"/>
	<path class="st1" d="M83.6,113.5c2.2,0,4.4,0.1,6.7,0.1c0,5.9-0.2,11.7,0,17.6c-0.1,3.7,4,6.4,7.5,5.6c2.1-0.1,3.4-1.9,4.9-3.2
		c1.2-6.6,0.3-13.4,0.7-20.1c2.1,0,4.2,0,6.2,0c-0.1,5.9,0.1,11.7-0.1,17.6c0.1,7.7-8.1,13.8-15.5,12c-5.7-1-10.3-6.2-10.5-12
		C83.4,125.2,83.6,119.3,83.6,113.5z"/>
	<path class="st1" d="M181.7,121.6c3-6.7,10.8-8.9,17.6-8.1c0,2.1-0.1,4.2-0.1,6.2c-3.3,0.3-6.7,0.4-9.8,1.8c-1.2,2-2.8,4-2.8,6.4
		c-0.2,5.1,0,10.2-0.1,15.3c-2.1,0-4.2,0-6.3,0C180.6,136.1,178.9,128.4,181.7,121.6z"/>
	<path class="st1" d="M202.6,113.4c2.2,0,4.4,0,6.7,0c-0.1,9.9,0,19.9,0,29.8c-2.2,0-4.3,0.1-6.5-0.2
		C202.4,133.2,202.8,123.3,202.6,113.4z"/>
	<path class="st1" d="M213.6,122.8c2.7-5.4,8.1-9.7,14.4-9.2c4.7-0.4,8.6,2.7,11.8,5.7c-1.6,1.5-3.3,3.1-5.5,3.7
		c-2.9-3.2-8.1-4-11.6-1.3c-4.9,3.1-4.3,11.4,0.8,14c3.8,2.4,8.6,0.7,11.6-2.3c1.6,1.3,3.2,2.8,4.8,4.1c-3.9,4.5-10.2,7.2-16.1,5.3
		C215.2,140.8,210.6,130.8,213.6,122.8z"/>
	<path class="st1" d="M18.5,114.7c6.2-2.7,14.2-0.8,18,5.1c-1.6,1.3-3.3,2.5-5.2,3.4c-3-3.4-8.9-4.2-12.3-1.1
		c-4.5,3.5-3.6,12.1,2,14.1c3.6,1.7,7.8,0.4,10.4-2.5c1.6,0.9,3,2.1,4.5,3c-0.1,0.5-0.2,1.5-0.2,2.1c-4.6,4.7-12.2,6.1-18,2.9
		c-6.3-3-9.6-10.9-7.4-17.5C11.3,119.9,14.7,116.6,18.5,114.7z"/>
</g>
</svg>
